X:21003 
T:BOIL THE BREAKFAST EARLY (reel)
B:DMI.789
Z:Nordberg/Black
R:reel
%Q:1/4=180
M:C|
L:1/8
K:G
GBBG AFDF|GBBd c2BA|GBBG AFDF|GEEG c2BA|
GBBG AFDF|GBBd c2Bc|dBcA BGAF|GEEG c2Bc||
dAA2 dAFA|dAA^c defe|dAA2 dAFA|GEEG c2Bc|
dAA2 dAFA|d^cde dgfe|dBcA BGAF|GEEG c2BA||\
"final"HG4z4|]

%%%

